public/flags/NP.svg

<svg fill="none" height="53" viewBox="0 0 61 53" width="61" xmlns="http://www.w3.org/2000/svg" xmlns:xlink="http://www.w3.org/1999/xlink"><mask id="a" height="43" maskUnits="userSpaceOnUse" width="35" x="2" y="3"><path clip-rule="evenodd" d="m2 7.24286c0-2.34327 1.89959-4.24286 4.24286-4.24286h.94496c.2811 0 .55582.08376.78909.2406l25.65779 17.2501c2.3177 1.5583 1.2147 5.176-1.5782 5.176h-13.1994l16.8672 14.8838c1.954 1.7243.7345 4.9495-1.8715 4.9495h-27.60994c-2.34327 0-4.24286-1.8996-4.24286-4.2429z" fill="#fff" fill-rule="evenodd"/></mask><rect fill="#fff" height="41.4393" rx="3.7125" stroke="#f5f5f5" stroke-width="1.06071" width="57.9393" x="2.53036" y="3.53036"/><path clip-rule="evenodd" d="m2 7.24286c0-2.34327 1.89959-4.24286 4.24286-4.24286h.94496c.2811 0 .55582.08376.78909.2406l25.65779 17.2501c2.3177 1.5583 1.2147 5.176-1.5782 5.176h-13.1994l16.8672 14.8838c1.954 1.7243.7345 4.9495-1.8715 4.9495h-27.60994c-2.34327 0-4.24286-1.8996-4.24286-4.2429z" fill="#fff" fill-rule="evenodd"/><g mask="url(#a)"><path d="m33.8528 44.0857h-30.43851v-39.67141h3.77353l25.65778 17.25011c1.1589.7792.6073 2.588-.7891 2.588h-13.1994c-.5881 0-1.1148.3639-1.3228.9141-.208.5501-.0539 1.1715.3871 1.5606l16.8672 14.8839c.977.8621.3672 2.4747-.9358 2.4747z" fill="#ee1b44" stroke="#0543a8" stroke-linejoin="round" stroke-width="2.82857"/><path clip-rule="evenodd" d="m16.4362 19.5767c.8093-.2237 1.5555-.5297 2.2155-.9024-.6546 2.3978-2.8324 4.159-5.418 4.159-2.5857 0-4.76345-1.7612-5.41803-4.159.66178.3737 1.41025.6803 2.22223.9042l1.093-.9952-1.78637-1.6264 2.40347.1238-.1227-2.4238 1.6127 1.8014 1.6128-1.8014-.1228 2.4238 2.4035-.1238-1.7863 1.6264zm-5.3484 19.8252 2.1503-2.4019 2.1503 2.4019-.1637-3.2318 3.2047.1651-2.3818-2.1686 2.3818-2.1685-3.2047.1651.1637-3.2319-2.1503 2.402-2.1503-2.402.1637 3.2319-3.20472-.1651 2.38182 2.1685-2.38182 2.1686 3.20472-.1651z" fill="#fff" fill-rule="evenodd"/></g></svg>

<svg width="61" height="53" viewBox="0 0 61 53" fill="none" xmlns="http://www.w3.org/2000/svg">
<rect x="2.53036" y="3.53036" width="57.9393" height="41.4393" rx="3.7125" fill="white" stroke="#F5F5F5" stroke-width="1.06071"/>
<path fill-rule="evenodd" clip-rule="evenodd" d="M2 7.24286C2 4.89959 3.89959 3 6.24286 3L7.18782 3C7.46892 3 7.74364 3.08376 7.97691 3.2406L33.6347 20.4907C35.9524 22.049 34.8494 25.6667 32.0565 25.6667H18.8571L35.7243 40.5505C37.6783 42.2748 36.4588 45.5 33.8528 45.5H6.24286C3.89959 45.5 2 43.6004 2 41.2571V7.24286Z" fill="white"/>
<mask id="mask0" mask-type="alpha" maskUnits="userSpaceOnUse" x="2" y="3" width="35" height="43">
<path fill-rule="evenodd" clip-rule="evenodd" d="M2 7.24286C2 4.89959 3.89959 3 6.24286 3L7.18782 3C7.46892 3 7.74364 3.08376 7.97691 3.2406L33.6347 20.4907C35.9524 22.049 34.8494 25.6667 32.0565 25.6667H18.8571L35.7243 40.5505C37.6783 42.2748 36.4588 45.5 33.8528 45.5H6.24286C3.89959 45.5 2 43.6004 2 41.2571V7.24286Z" fill="white"/>
</mask>
<g mask="url(#mask0)">
<path d="M33.8528 44.0857H3.41429V4.41429H7.18782L32.8456 21.6644C34.0045 22.4436 33.4529 24.2524 32.0565 24.2524H18.8571C18.269 24.2524 17.7423 24.6163 17.5343 25.1665C17.3263 25.7166 17.4804 26.338 17.9214 26.7271L34.7886 41.611C35.7656 42.4731 35.1558 44.0857 33.8528 44.0857Z" fill="#EE1B44" stroke="#0543A8" stroke-width="2.82857" stroke-linejoin="round"/>
<path fill-rule="evenodd" clip-rule="evenodd" d="M16.4362 19.5767C17.2455 19.353 17.9917 19.047 18.6517 18.6743C17.9971 21.0721 15.8193 22.8333 13.2337 22.8333C10.648 22.8333 8.47025 21.0721 7.81567 18.6743C8.47745 19.048 9.22592 19.3546 10.0379 19.5785L11.1309 18.5833L9.34453 16.9569L11.748 17.0807L11.6253 14.6569L13.238 16.4583L14.8508 14.6569L14.728 17.0807L17.1315 16.9569L15.3452 18.5833L16.4362 19.5767ZM11.0878 39.4019L13.2381 37L15.3884 39.4019L15.2247 36.1701L18.4294 36.3352L16.0476 34.1666L18.4294 31.9981L15.2247 32.1632L15.3884 28.9313L13.2381 31.3333L11.0878 28.9313L11.2515 32.1632L8.04678 31.9981L10.4286 34.1666L8.04678 36.3352L11.2515 36.1701L11.0878 39.4019Z" fill="white"/>
</g>
</svg>
